symbols/web/wc/materialsymbolssharp/wc_wght300grad200_24px.svg

<svg xmlns="http://www.w3.org/2000/svg" height="24" width="24"><path d="M5.325 22.4v-7.7h-1.8V7h7.6v7.7h-1.8v7.7Zm10.1 0v-6.15H12.55L15.35 7h3.3l2.8 9.25h-2.875v6.15ZM7.3 5.975q-.9 0-1.475-.575-.575-.575-.575-1.475 0-.875.575-1.45T7.3 1.9q.9 0 1.475.575.575.575.575 1.45 0 .9-.575 1.475-.575.575-1.475.575Zm9.7 0q-.9 0-1.475-.575-.575-.575-.575-1.475 0-.875.575-1.45T17 1.9q.9 0 1.475.575.575.575.575 1.45 0 .9-.575 1.475-.575.575-1.475.575Z"/></svg>

<svg xmlns="http://www.w3.org/2000/svg" height="24" width="24"><path d="M5.325 22.4V14.7H3.525V7H11.125V14.7H9.325V22.4ZM15.425 22.4V16.25H12.55L15.35 7H18.65L21.45 16.25H18.575V22.4ZM7.3 5.975Q6.4 5.975 5.825 5.4Q5.25 4.825 5.25 3.925Q5.25 3.05 5.825 2.475Q6.4 1.9 7.3 1.9Q8.2 1.9 8.775 2.475Q9.35 3.05 9.35 3.925Q9.35 4.825 8.775 5.4Q8.2 5.975 7.3 5.975ZM17 5.975Q16.1 5.975 15.525 5.4Q14.95 4.825 14.95 3.925Q14.95 3.05 15.525 2.475Q16.1 1.9 17 1.9Q17.9 1.9 18.475 2.475Q19.05 3.05 19.05 3.925Q19.05 4.825 18.475 5.4Q17.9 5.975 17 5.975Z"/></svg>
